X: 40230
T: Tip Toe Home
R: reel
M: 4/4
K: Edorian
|:BEEF GFGA|B~e2e dBA2|BEEF GABA|ADFD ADFD|
BEEF GFGA|B~e2e dBA2|Bdde dBAF|DEFD E4:|
|:G2GB dGBd|D2ED ADED|G3B dGBd|DEFD ~E3E|
G3B d2Bd|D2ED ADED|G2GE F2FG|AFDE FDE2:|

